T: Leprechaun Step, The
M: 3/4
L: 1/8
K: Edor
EB BA cB|EB BA B2|EB BA cB|1AG FG AB:|2AG FG A^A||BE EF GE|FE DE F2|EB BA cB|1AG FG A^A:|2AG FG AF|
